X:1
T:To all you ladies now at hand
T:John Wall Callcott (1766-1821) Accompaniment added by William Horsley (1774-1858)
T:First, 10th and eleventh verse from poem by Charles Sackville, Earl of Dorset (1636-1706).
T:To all you ladies now at hand
T:"The new mariners"
T:Copyright © 
T:Copyright © 
T:Copyright © 
T:Copyright © 
T:Copyright © 
T:Copyright © 
C:John Wall Callcott (1766-1821)
C:Accompaniment added by William Horsley (1774-1858)
Z:First, 10th and eleventh verse from poem by
Z:Charles Sackville, Earl of Dorset (1636-1706).
Z:Copyright ©
%%score [ ( 1 2 ) ( 3 4 ) ( 5 6 ) ] { ( 7 11 ) | ( 8 9 10 ) }
L:1/8
Q:1/4=152
M:4/4
K:Bb
V:1 treble-8 transpose=-12 nm="Counter tenor" snm="T."
V:2 treble-8 transpose=-12 
V:3 treble-8 transpose=-12 nm="Tenor" snm="T."
V:4 treble-8 transpose=-12 
V:5 bass nm="Bass" snm="B."
V:6 bass 
V:7 treble nm="Piano" snm="Pno."
V:11 treble 
V:8 bass 
V:9 bass 
V:10 bass 
V:1
!mf!"^With animation" F2 | B2 B2 B2 B2 | B3 B B2 d2 | c2 c2 c2 c2 | c4 z2 d2 | e2 e2 d2 d2 | %6
w: To|all you la- dies|now at land, we|men at sea in-|dite; but|first would have you|
w: In|jus- tice you can-|not re- fuse, to|think of our dis-|tress; when|we for hopes of|
w: And|now we've told you|all our loves, and|like- wise all our|fears; in|hopes this de- cla-|
 g2 g2 f2 f2 | !>!e2 d2 (fe) (dc) | B4 z2 (BA) | G2 G2 F2 (BA) | G2 G2 F2 B2 | A2 B2 c2 d2 | %12
w: un- der- stand, how|hard it is * to *|write: the _|mu- ses now, and _|Nep- tune too, We|must im- plore to|
w: ho- nour, lose our|cer- tain hap- * pi- *|ness; all _|these de- signs are _|but to prove our-|selves more wor- thy|
w: ra- tion moves some|pi- ty for _ our _|tears; let's _|hear of no in- *|con- stan- cy, we|have e- nough of|
 c3 d c2 c2 | d4 =e4 | !fermata!f4"^[Refrain:solo voices]" z2!p! FF | B2 B2 c2 c2 | d3 e f2 ff | %17
w: write to you, to|write to|you. With a|fa la la la|la la la. With a|
w: of your love, more||love. * *|||
w: that at sea, of|that at|sea. * *|||
"^cresc." f8- | f6 ff | fggg g2 gg | =efff f2 ff | fgfe d2 c2 | B6!f!"^Chorus" FF | B2 B2 c2 c2 | %24
w: fa,|_ with a|fa la la la la, with a|fa la la la la, with a|fa la la la la la|la. With a|fa la la la|
w: |||||||
w: |||||||
 d3 e f2 ff | f8- | f6 ff | fggg g2 gg | =efff f2 ff | fgfe d2 c2 | B6 |] %31
w: la la la. With a|fa,|la, with a|fa la la la la, with a|fa la la la la, with a|fa la la la la la|la.|
w: |||||||
w: |||||||
V:2
 x2 | x8 | x8 | x8 | x8 | x8 | x8 | x8 | x8 | x8 | x8 | x8 | x8 | d2 d2 =e2 e2 | x8 | x8 | x8 | %17
w: |||||||||||||||||
w: |||||||||||||wor- thy of your||||
 x8 | x8 | x8 | x8 | x8 | x8 | x8 | x8 | x8 | x8 | x8 | x8 | x8 | x6 |] %31
w: ||||||||||||||
w: ||||||||||||||
V:3
!mf! F2 | D2 G2 F2 E2 | D3 E F2 B2 | A2 G2 F2 G2 | A4 z2 B2 | B2 B2 B2 B2 | B2 B2 B2 B2 | %7
w: To|all you la- dies|now at land, we|men at sea in-|dite; but|first would have you|un- der- stand, how|
w: In|jus- tice you can-|not re- fuse, to|think of our dis-|tress; when|we for hopes of|ho- nour, lose our|
w: And|now we've told you|all our loves, and|like- wise all our|fears; in|hopes this de- cla-|ra- tion moves some|
 !>!A2 B2 (dc) (BA) | B4 z2 D2 | E2 E2 D2 F2 | E2 E2 D2 F2 | F2 F2 F2 B2 | A3 B A2 A2 | B4 G4 | %14
w: hard it is * to *|write: the|mu- ses now, and|Nep- tune too, We|must im- plore to|write to you, to|write to|
w: cer- tain hap- * pi- *|ness; all|these de- signs are|but to prove our-|selves more wor- thy|of your love, more||
w: pi- ty for _ our _|tears; let's|hear of no in-|con- stan- cy, we|have e- nough of|that at sea, of|that at|
 !fermata!A4!p! z2 FF | D2 D2 F2 F2 | B3 c d2 F"^cresc."F | B2 B2 c2 c2 | d3 e f2 dd | deee e2 ee | %20
w: you. With a|fa la la la|la la la. With a|fa la la la|la la la, with a|fa la la la la, with a|
w: love. * *||||||
w: sea. * *||||||
 ^cddd d2 dd | dedc B2 A2 | B6!f! FF | D2 D2 F2 F2 | B3 c d2 FF | B2 B2 c2 c2 | d3 e f2 dd | %27
w: fa la la la la, with a|fa la la la la la|la. With a|fa la la la|la la la. With a|fa la la la|la la la, with a|
w: |||||||
w: |||||||
 deee e2 ee | ^cddd d2 dd | dedc B2 A2 | B6 |] %31
w: fa la la la la, with a|fa la la la la, with a|fa la la la la la|la.|
w: ||||
w: ||||
V:4
 x2 | x8 | x8 | x8 | x8 | x8 | x8 | x8 | x8 | x8 | x8 | x8 | x8 | B2 B2 G2 G2 | x8 | x8 | x8 | x8 | %18
w: ||||||||||||||||||
w: |||||||||||||wor- thy of your|||||
 x8 | x8 | x8 | x8 | x8 | x8 | x8 | x8 | x8 | x8 | x8 | x8 | x6 |] %31
w: |||||||||||||
w: |||||||||||||
V:5
!mf! F,2 | B,,2 E,2 D,2 C,2 | B,,3 C, D,2 B,,2 | F,2 B,2 A,2 G,2 | F,4 z2 (B,A,) | %5
w: To|all you la- dies|now at land, we|men at sea in-|dite; but _|
w: In|jus- tice you can-|not re- fuse, to|think of our dis-|tress; when _|
w: And|now we've told you|all our loves, and|like- wise all our|fears; in _|
 G,2 G,2 F,2 F,2 | E,2 E,2 D,2 D,2 | !>!C,2 B,,2 E,2 F,2 | B,,4 z2 B,,2 | B,,2 B,,2 B,,2 B,,2 | %10
w: first would have you|un- der- stand, how|hard it is to|write: the|mu- ses now, and|
w: we for hopes of|ho- nour, lose our|cer- tain hap- pi-|ness; all|these de- signs are|
w: hopes this de- cla-|ra- tion moves some|pi- ty for our|tears; let's|hear of no in-|
 B,,2 B,,2 B,,2 D,2 | C,2 B,,2 A,,2 B,,2 | F,3 F, F,2 F,2 | B,,4 C,4 | !fermata!F,4 z4 | z8 | %16
w: Nep- tune too, We|must im- plore to|write to you, to|write to|you.||
w: but to prove our-|selves more wor- thy|of your love, more||love.||
w: con- stan- cy, we|have e- nough of|that at sea, of|that at|sea.||
 z4 z2 F,"^cresc."F, | D,2 D,2 F,2 F,2 | B,3 C D2 B,B, | E,2 E,2 G,2 G,G, | B,2 B,2 B,2 B,B, | %21
w: With a|fa la la la|la la la, with a|fa la la, with a|fa la la, with a|
w: |||||
w: |||||
 E,2 E,2 F,2 F,2 | B,,4 z4 | z8 | z4!f! z2 F,F, | D,2 D,2 F,2 F,2 | B,3 C D2 B,B, | %27
w: fa la la la|la.||With a|fa la la la|la la la, with a|
w: ||||||
w: ||||||
 E,2 E,2 G,2 G,G, | B,2 B,2 B,2 B,B, | E,2 E,2 F,2 F,2 | B,,6 |] %31
w: fa la la, with a|fa la la, with a|fa la la la|la.|
w: ||||
w: ||||
V:6
 x2 | x8 | x8 | x8 | x8 | x8 | x8 | x8 | x8 | x8 | x8 | x8 | x8 | B,,2 B,,2 C,2 C,2 | x8 | x8 | %16
w: ||||||||||||||||
w: |||||||||||||wor- thy of your|||
 x8 | x8 | x8 | x8 | x8 | x8 | x8 | x8 | x8 | x8 | x8 | x8 | x8 | x8 | x6 |] %31
w: |||||||||||||||
w: |||||||||||||||
V:7
 z2 | z8 | z8 | z8 | z8 | E2 E2 D2 D2 | G2 G2 F2 F2 | E2 D2 [DF][CE][B,D][A,C] | B,4 z4 | z8 | z8 | %11
 z8 | z4 z2 [A,C]2 | [B,D]4 [G,=E]4 | !fermata![A,F]4 z4 | z8 | (D3 E F2) FF |"^cresc." F8- | %18
 F6 [DF][DF] | [DF][EG][EG][EG] [EG]2 [EG][EG] | [^C=E][DF][DF][DF] [DF]2 [DF][DF] | %21
 ([DF][EG][DF][CE]) [B,D]2 [A,C]2 | B,6 z2 | z8 | (D3 E F2) FF | F8- | F6 [DF][DF] | %27
 [DF][EG][EG][EG] [EG]2 [EG][EG] | [^C=E][DF][DF][DF] [DF]2 [DF][DF] | %29
 ([DF][EG][DF][CE]) [B,D]2 [A,C]2 | B,6 |] %31
V:8
!mf! F,2 | B,2 B,2 B,2 B,2 | B,3 B, B,2 D2 | C2 [B,C]2 C2 C2 | C4 z2[I:staff -1] D2 | %5
[I:staff +1] G,2 G,2 F,2 F,2 | E,2 E,2 D,2 D,2 | C,2 B,,2 E,2 F,2 | x4 z2 B,A, | G,2 G,2 F,2 B,A, | %10
 E,2 E,2 D,2 F,2 | F,2 F,2 F,2 B,2 | A,3 B, A,2 A,2 | B,,4 C,4 | !fermata!F,4 z2!p! F,F, | %15
 B,2 B,2 C2 C2 | B,3 C D2 F,F, | [D,B,]2 [D,B,]2 [F,C]2 [F,C]2 | [B,D]3 [CE] [DF]2 B,B, | %19
 E,2 E,2 G,2 G,G, | B,2 B,2 B,2 B,B, | E,2 E,2 F,2 F,2 | B,,6!f! F,F, | B,2 B,2 C2 C2 | %24
 B,3 C D2 F,F, | [D,B,]2 [D,B,]2 [F,C]2 [F,C]2 | B,3 C D2 B,B, | E,2 E,2 G,2 G,G, | %28
 B,2 B,2 B,2 B,B, | E,2 E,2 F,2 F,2 | B,,6 |] %31
V:9
 F,2 | D,2 G,2 F,2 E,2 | D,3 E, F,2 B,2 | A,2 G,2 F,2 G,2 | A,4 x2[I:staff -1] B,2 | x8 | x8 | x8 | %8
[I:staff +1] x4 x2 D,2 | E,2 E,2 D,2 F,2 | B,,2 B,,2 B,,2 D,2 | C,2 B,,2 A,,2 B,,2 | %12
 F,3 F, F,2 F,2 | x8 | !fermata!x4 x2 F,F, | D,2 D,2 F,2 F,2 | x8 | x8 | x8 | x8 | x8 | x8 | %22
 x4 x2 F,F, | D,2 D,2 F,2 F,2 | x8 | x8 | x8 | x8 | x8 | x8 | x6 |] %31
V:10
 F,2 | B,,2 E,2 D,2 C,2 | B,,3 C, D,2 B,,2 | F,2 x2 A,2 G,2 | F,4 z2 B,A, | x8 | x8 | x8 | %8
 B,,4 z2 B,,2 | B,,2 B,,2 B,,2 B,,2 | x8 | x8 | x8 | x8 | x8 | x8 | x8 | x8 | x8 | x8 | x8 | x8 | %22
 x8 | x8 | x8 | x8 | x8 | x8 | x8 | x8 | x6 |] %31
V:11
 x2 | x8 | x8 | x8 | x8 | B,2 B,2 B,2 B,2 | B,2 B,2 B,2 B,2 | A,2 A,2 x4 | B,4 x4 | x8 | x8 | x8 | %12
 x8 | x8 | x8 | x8 | x8 | x8 | x8 | x8 | x8 | x8 | x8 | x8 | x8 | x8 | x8 | x8 | x8 | x8 | B,6 |] %31

